packages/icons/src/components/Icon/assets/small-solid/image.svg

<svg width="16" height="16" viewBox="0 0 16 16" fill="none" xmlns="http://www.w3.org/2000/svg">
<path fill-rule="evenodd" clip-rule="evenodd" d="M2 4C2 2.89543 2.89543 2 4 2H12C13.1046 2 14 2.89543 14 4V12C14 13.1046 13.1046 14 12 14H4C2.89543 14 2 13.1046 2 12V4ZM12.5 9.70711C12.5 9.5745 12.4473 9.44732 12.3536 9.35355L11.3536 8.35355C11.1583 8.15829 10.8417 8.15829 10.6464 8.35355L9.35355 9.64645C9.15829 9.84171 8.84171 9.84171 8.64645 9.64645L6.35355 7.35355C6.15829 7.15829 5.84171 7.15829 5.64645 7.35355L3.64645 9.35355C3.55268 9.44732 3.5 9.5745 3.5 9.70711V12C3.5 12.2761 3.72386 12.5 4 12.5H12C12.2761 12.5 12.5 12.2761 12.5 12V9.70711ZM12 5C12 5.55228 11.5523 6 11 6C10.4477 6 10 5.55228 10 5C10 4.44772 10.4477 4 11 4C11.5523 4 12 4.44772 12 5Z" fill="#727683"/>
</svg>

<svg xmlns="http://www.w3.org/2000/svg" width="16" height="16" fill="none" viewBox="0 0 16 16">
    <path fill="#727683" fill-rule="evenodd" d="M2 4a2 2 0 0 1 2-2h8a2 2 0 0 1 2 2v8a2 2 0 0 1-2 2H4a2 2 0 0 1-2-2zm10.5 5.707a.5.5 0 0 0-.146-.353l-1-1a.5.5 0 0 0-.708 0L9.354 9.646a.5.5 0 0 1-.708 0L6.354 7.354a.5.5 0 0 0-.708 0l-2 2a.5.5 0 0 0-.146.353V12a.5.5 0 0 0 .5.5h8a.5.5 0 0 0 .5-.5zM12 5a1 1 0 1 1-2 0 1 1 0 0 1 2 0" clip-rule="evenodd"/>
</svg>
